picto/jump-on-train-prohibited-when-door-is-closing-right-framed.svg

<svg class="color-immutable" width="30" height="30" viewBox="0 0 30 30" fill="none" xmlns="http://www.w3.org/2000/svg"><path d="M30 0H0V30H30V0Z" fill="#2D327D"/><path d="M17.5499 12.4172V10.0712C16.9945 10.1727 16.5725 10.6583 16.5725 11.2442C16.5725 11.8294 16.9945 12.3155 17.5499 12.4172Z" fill="white"/><path d="M10.3903 19.4149C10.1908 19.6157 9.92393 19.7263 9.63885 19.7263H6.23662C6.15517 19.7263 6.0762 19.7162 6 19.6987V24H12V17.8053L10.3903 19.4149Z" fill="white"/><path d="M6.6576 6H6V6.6576L6.6576 6Z" fill="white"/><path d="M8.18604 7.125H9.75008C9.95716 7.125 10.1251 7.29292 10.1251 7.5V9.06405L12.0001 10.9391V6H7.06104L8.18604 7.125Z" fill="white"/><path d="M10.4352 14.2178C10.4352 13.9817 10.5272 13.7605 10.6928 13.5965L11.6146 12.675L10.125 11.1854V16.125C10.125 16.3321 9.95707 16.5 9.75 16.5H7.5C7.29292 16.5 7.125 16.3321 7.125 16.125V8.18542L6 7.06042V17.6297C6.0762 17.6122 6.15517 17.6021 6.23662 17.6021H9.11167L11.7125 15.0009C11.5904 15.0629 11.4546 15.0958 11.3139 15.0958C10.8294 15.0957 10.4352 14.7019 10.4352 14.2178Z" fill="white"/><path d="M13.877 12.8162H14.5331L14.2051 13.1443L14.9354 13.8745L15.7205 14.6597L16.0324 14.3476V14.9716L17.1854 16.1245L17.5498 16.489V15.6028H16.9208V13.4599C16.9208 12.6154 16.2356 11.9291 15.3892 11.9291H13.2499C13.1744 11.9291 13.1005 11.9437 13.0312 11.9704L13.877 12.8162Z" fill="white"/><path d="M14.0195 16.3619L14.6603 15.7207L13.6013 14.6616L13.1446 14.205L9.29813 18.0521H6.23662C5.89845 18.0521 5.625 18.3257 5.625 18.665C5.625 19.0022 5.89845 19.2764 6.23662 19.2764H9.63885C9.80093 19.2764 9.95625 19.2134 10.0711 19.0979L12.5031 16.6659L14.8084 18.9699V22.3372C14.8084 22.6752 15.083 22.95 15.421 22.95C15.759 22.95 16.0326 22.6752 16.0326 22.3372V18.6306C16.0326 18.4671 15.9694 18.3126 15.8538 18.1963L14.0195 16.3619Z" fill="white"/><path d="M11.314 14.6457C11.4281 14.6457 11.5365 14.6011 11.6177 14.5207L12.5386 13.5989L11.9329 12.9931L11.011 13.9147C10.9306 13.9944 10.8853 14.1029 10.8853 14.2177C10.8853 14.4534 11.0775 14.6457 11.314 14.6457Z" fill="white"/><path d="M18 19.0604V24H22.9396L18 19.0604Z" fill="white"/><path d="M23.3413 24H24.0001V23.3412L23.3413 24Z" fill="white"/><path d="M24 22.9391V6H18V16.9391L24 22.9391ZM19.875 7.5C19.875 7.29293 20.0429 7.125 20.25 7.125H22.5C22.7071 7.125 22.875 7.29293 22.875 7.5V16.125C22.875 16.3321 22.7071 16.5 22.5 16.5H20.25C20.0429 16.5 19.875 16.3321 19.875 16.125V7.5Z" fill="white"/><path d="M25.5 3C26.325 3 27 3.675 27 4.5V25.5C27 26.325 26.325 27 25.5 27H4.5C3.675 27 3 26.325 3 25.5V4.5C3 3.675 3.675 3 4.5 3H25.5ZM25.5 2.625H4.5C3.46613 2.625 2.625 3.46613 2.625 4.5V25.5C2.625 26.5339 3.46613 27.375 4.5 27.375H25.5C26.5339 27.375 27.375 26.5339 27.375 25.5V4.5C27.375 3.46613 26.5339 2.625 25.5 2.625Z" fill="white"/><path d="M17.1855 16.1246L14.9355 13.8746L6.85923 5.7984L5.79858 6.85905L13.6012 14.6616L15.0641 16.1246L23.1404 24.2008L24.201 23.1401L17.1855 16.1246Z" fill="#EB0000"/></svg>

<svg class="color-immutable" width="30" height="30" viewBox="0 0 30 30" fill="none" xmlns="http://www.w3.org/2000/svg"><g clip-path="url(#a)"><path d="M30 0H0v30h30V0Z" fill="#2D327D"/><path d="M17.55 12.417v-2.346a1.193 1.193 0 0 0 0 2.346ZM10.39 19.415c-.2.2-.466.311-.751.311H6.237c-.082 0-.16-.01-.237-.027V24h6v-6.195l-1.61 1.61ZM6.658 6H6v.658L6.658 6ZM8.186 7.125H9.75c.207 0 .375.168.375.375v1.564L12 10.94V6H7.061l1.125 1.125ZM10.435 14.218c0-.236.092-.457.258-.621l.922-.922-1.49-1.49v4.94a.375.375 0 0 1-.375.375H7.5a.375.375 0 0 1-.375-.375v-7.94L6 7.06v10.57c.076-.018.155-.028.237-.028h2.875l2.6-2.601a.878.878 0 0 1-1.277-.783ZM13.877 12.816h.656l-.328.328.73.73.785.786.312-.312v.624l1.153 1.153.365.364v-.886h-.63V13.46c0-.845-.684-1.53-1.53-1.53h-2.14a.608.608 0 0 0-.219.04l.846.846Z" fill="#fff"/><path d="m14.02 16.362.64-.641-1.059-1.06-.456-.456-3.847 3.847H6.237a.612.612 0 1 0 0 1.224h3.402a.608.608 0 0 0 .432-.178l2.432-2.432 2.305 2.304v3.367a.613.613 0 0 0 1.225 0v-3.706a.612.612 0 0 0-.18-.435l-1.833-1.834ZM11.314 14.646a.43.43 0 0 0 .304-.125l.92-.922-.605-.606-.922.922a.429.429 0 0 0 .303.731ZM18 19.06V24h4.94L18 19.06ZM23.341 24h.66v-.659l-.66.659ZM24 22.94V6h-6v10.94l6 6ZM19.875 7.5c0-.207.168-.375.375-.375h2.25c.207 0 .375.168.375.375v8.625a.375.375 0 0 1-.375.375h-2.25a.375.375 0 0 1-.375-.375V7.5Z" fill="#fff"/><path d="M25.5 3c.825 0 1.5.675 1.5 1.5v21c0 .825-.675 1.5-1.5 1.5h-21c-.825 0-1.5-.675-1.5-1.5v-21C3 3.675 3.675 3 4.5 3h21Zm0-.375h-21A1.877 1.877 0 0 0 2.625 4.5v21c0 1.034.841 1.875 1.875 1.875h21a1.877 1.877 0 0 0 1.875-1.875v-21A1.877 1.877 0 0 0 25.5 2.625Z" fill="#fff"/><path d="m17.186 16.125-2.25-2.25-8.077-8.077L5.8 6.86l7.802 7.803 1.463 1.463L23.14 24.2l1.061-1.06-7.015-7.016Z" fill="#EB0000"/></g><defs><clipPath id="a"><path fill="#fff" d="M0 0h30v30H0z"/></clipPath></defs></svg>
